X:1
T:The Funeral Party
M:2/4
L:1/16
K:G
 DF| GG GF GA Bc| dB ec dB Ac| BE EDE-F GA| BG AFG-F ED| DG GFG-A Bc|\
 dB ec dB Ac| BE ED EF GA| Bc AF G2D-F| GD GFG-A Bc| dB ec dB Ac| BE EDE-F GA|\
 BG AF G2 ED|D-G GF-G AB c| dB ec dB Ac| BE ED EF GA| BG AF G2 BB|\
 Be ed ed ef| ge af gf ed| Bd de dd de| ge afg-fe-d| Be ed e2f2| ge af gf ed|\
 BE ED EF GA| Bc AF G2||
